static/logos/contentful.svg

<svg width="656" height="150" viewBox="0 0 656 150" fill="none" xmlns="http://www.w3.org/2000/svg">
<path d="M187.9 90.8998C191.8 87.8998 192.4 89.5998 195.8 92.9998C197.5 94.6998 201.9 97.5998 199.1 100.1C186.4 111 167.2 109.6 156.3 96.8998C151.3 91.0998 148.7 83.6998 149 76.0998C149.2 67.9998 152.8 60.3998 158.8 55.0998C164.5 50.3998 171.8 47.9998 179.2 48.1998C182.9 48.1998 186.5 48.8998 189.9 50.2998C192.2 51.1998 194.4 52.2998 196.4 53.7998C200.4 56.7998 198.6 58.6998 195.4 61.7998L193.3 63.8998C191.7 65.4998 190.6 66.5998 188.5 65.1998C184.5 62.1998 179.3 61.0998 174.4 62.1998C158.7 66.2998 159.6 94.1998 178.8 94.1998C182.2 93.9998 185.3 92.8998 187.9 90.8998ZM624 106.2C621.4 106.2 619.2 104.1 619.2 101.4V39.5998C619.2 36.9998 621.3 34.7998 624 34.7998H629.1C631.7 34.7998 633.9 36.8998 633.9 39.5998V101.5C633.9 104.1 631.8 106.3 629.1 106.3L624 106.2ZM597.1 99.1998C592.3 104.4 585.4 107.3 578.3 107.2C562.3 107.2 554.7 93.9998 554.7 79.1998V54.0998C554.7 51.4998 556.8 49.2998 559.5 49.2998H564.6C567.2 49.2998 569.4 51.3998 569.4 54.0998V79.0998C568.5 86.2998 573.6 92.7998 580.7 93.6998C581.3 93.7998 581.9 93.7998 582.6 93.7998C590.6 93.5998 596.9 86.8998 596.7 78.9998C596.7 78.7998 596.7 78.5998 596.7 78.3998V69.3998C596.7 69.0998 596.7 68.6998 596.7 68.3998V54.0998C596.7 51.4998 598.8 49.2998 601.5 49.2998H606.6C609.2 49.2998 611.4 51.3998 611.4 54.0998V101.6C611.4 104.2 609.3 106.3 606.7 106.3H602.4C599.8 106.2 597.8 104.2 597.7 101.6V99.1998H597.1V99.1998ZM535.7 49.4998H545.7C548.3 49.4998 550.4 51.6998 550.4 54.2998V57.5998C550.4 60.1998 548.3 62.3998 545.7 62.3998H535.7V101.5C535.7 104.1 533.6 106.3 530.9 106.3H525.8C523.2 106.3 521 104.2 521 101.5V47.4998C520 36.1998 528.3 26.2998 539.5 25.2998C539.6 25.2998 539.6 25.2998 539.7 25.2998H547.5C550.1 25.2998 552.2 27.4998 552.2 30.0998V33.0998C552.2 35.6998 550.1 37.8998 547.5 37.8998H543.7C538 37.8998 535.6 42.2998 535.6 47.5998L535.7 49.4998ZM500.1 49.4998H511C513.6 49.4998 515.7 51.5998 515.7 54.1998V57.3998C515.7 59.9998 513.6 62.0998 511 62.0998H500.1V85.9998C500.1 90.5998 502.3 93.2998 507 93.2998H509.2C511.8 93.2998 513.9 95.3998 513.9 97.9998V101.2C513.9 103.8 511.8 105.9 509.2 105.9H502.6C490.8 105.2 485.5 97.4998 485.5 85.9998V39.6998C485.5 37.0998 487.6 34.9998 490.2 34.9998H495.2C497.8 34.9998 499.9 37.0998 499.9 39.6998L500.1 49.4998ZM342.3 49.4998H353.2C355.8 49.4998 357.9 51.5998 357.9 54.1998V57.3998C357.9 59.9998 355.8 62.0998 353.2 62.0998H342.6V85.9998C342.6 90.5998 344.8 93.2998 349.5 93.2998H351.7C354.3 93.2998 356.4 95.3998 356.4 97.9998V101.2C356.4 103.8 354.3 105.9 351.7 105.9H348.4C335.5 105.9 328.1 100.4 328.1 85.8998V39.6998C328.1 37.0998 330.2 34.9998 332.8 34.9998H337.8C340.4 34.9998 342.5 37.0998 342.5 39.6998V49.4998H342.3ZM278.3 56.3998C283 51.3998 289.6 48.4998 296.5 48.3998C312.4 48.3998 320.8 61.4998 320.8 76.3998V101.5C320.8 104.1 318.7 106.3 316 106.3H310.9C308.3 106.3 306.1 104.2 306.1 101.5V76.4998C307 69.2998 301.9 62.7998 294.8 61.8998C294.2 61.7998 293.5 61.7998 292.9 61.7998C284.9 61.9998 278.6 68.6998 278.9 76.5998C278.9 76.7998 278.9 76.8998 278.9 77.0998V101.4C278.9 104 276.8 106.1 274.2 106.1H269.2C266.6 106.1 264.5 104 264.5 101.4V53.9998C264.5 51.3998 266.6 49.2998 269.2 49.2998H273.5C276.1 49.3998 278.1 51.3998 278.2 53.9998L278.3 56.3998ZM436.2 56.3998C440.9 51.3998 447.5 48.4998 454.4 48.3998C470.3 48.3998 478.7 61.4998 478.7 76.3998V101.5C478.7 104.1 476.6 106.3 473.9 106.3H468.8C466.2 106.3 464 104.2 464 101.5V76.4998C464.9 69.2998 459.8 62.7998 452.7 61.8998C452.1 61.7998 451.4 61.7998 450.8 61.7998C442.8 61.9998 436.5 68.6998 436.8 76.5998C436.8 76.7998 436.8 76.8998 436.8 77.0998V101.4C436.8 104 434.7 106.1 432.1 106.1H427C424.4 106.1 422.3 104 422.3 101.4V53.9998C422.3 51.3998 424.4 49.2998 427 49.2998H431.3C433.9 49.3998 435.9 51.3998 436 53.9998V56.4998L436.2 56.3998ZM229.8 48.1998C214 47.6998 200.8 59.9998 200.3 75.7998C200.3 76.4998 200.3 77.1998 200.3 77.8998C200.3 94.2998 213.6 107.5 229.9 107.5C246.2 107.5 259.5 94.1998 259.5 77.8998C260 61.9998 247.6 48.6998 231.7 48.1998C231.1 48.1998 230.4 48.1998 229.8 48.1998ZM373.4 83.1998C375.2 90.4998 382.2 95.3998 389.7 94.3998C393.4 94.2998 397.1 93.4998 400.4 91.9998L402 91.1998C403.8 90.1998 405.4 89.5998 407 91.1998L409.6 93.7998C410.4 94.5998 411.2 95.4998 411.9 96.2998C414.3 99.2998 412.6 100.1 409.9 101.9C403.8 105.9 396.7 108 389.4 108C370.6 108 358.1 96.5998 358.1 77.5998C357.4 61.8998 369.5 48.4998 385.3 47.7998C386.4 47.7998 387.4 47.7998 388.5 47.7998C406.7 47.7998 417.2 58.4998 417.5 76.7998C417.5 81.7998 417.8 83.3998 412.6 83.3998L373.4 83.1998ZM230.3 61.4998C238.9 61.6998 245.7 68.7998 245.5 77.3998C245.5 77.4998 245.5 77.6998 245.5 77.7998C246.2 85.9998 240.2 93.2998 231.9 94.0998C223.7 94.7998 216.4 88.7998 215.6 80.4998C215.5 79.5998 215.5 78.6998 215.6 77.7998C214.9 69.4998 221.1 62.1998 229.4 61.5998C229.8 61.5998 230.2 61.5998 230.5 61.5998L230.3 61.4998ZM374.1 70.7998H403.3C402.1 64.0998 395.8 59.5998 389.1 60.5998C382.4 60.2998 376.3 64.4998 374.1 70.7998Z" fill="#37322e"/>
<path d="M100.6 52.6001C100.6 52.6001 110.4 63.9001 120.3 53.5001C130.2 43.1001 114.5 31.9001 114.5 31.9001C114.5 31.9001 82.1 3.00006 43.2 32.2001C43.2 32.2001 21.9 48.5001 22.9 78.8001C23.9 109.1 49.4 123.4 49.4 123.4C49.4 123.4 80.3 144.3 113 120.9C113 120.9 128.9 112.5 119.8 98.6001C119.8 98.6001 110.8 88.5001 103 97.0001C95.2 105.5 75 114.7 56.9 97.7001C38.8 80.7001 48.6 45.4001 77.3 44.3001C77.3 44.3001 89.6 42.7001 100.6 52.6001Z" stroke="#37322e" stroke-width="5" stroke-miterlimit="10"/>
<path d="M47.7 56.6002C54.4379 56.6002 59.9 51.1381 59.9 44.4002C59.9 37.6623 54.4379 32.2002 47.7 32.2002C40.9621 32.2002 35.5 37.6623 35.5 44.4002C35.5 51.1381 40.9621 56.6002 47.7 56.6002Z" stroke="#37322e" stroke-width="5" stroke-miterlimit="10"/>
<path d="M48.3 118.8C55.0378 118.8 60.5 113.338 60.5 106.6C60.5 99.862 55.0378 94.3999 48.3 94.3999C41.5621 94.3999 36.1 99.862 36.1 106.6C36.1 113.338 41.5621 118.8 48.3 118.8Z" stroke="#37322e" stroke-width="5" stroke-miterlimit="10"/>
</svg>

<svg fill="none" xmlns="http://www.w3.org/2000/svg" viewBox="0 0 656 150"><path d="M187.9 90.9c3.9-3 4.5-1.3 7.9 2.1 1.7 1.7 6.1 4.6 3.3 7.1a30.4 30.4 0 01-50.1-24 29 29 0 019.8-21c5.7-4.7 13-7.1 20.4-6.9 3.7 0 7.3.7 10.7 2.1 2.3.9 4.5 2 6.5 3.5 4 3 2.2 4.9-1 8l-2.1 2.1c-1.6 1.6-2.7 2.7-4.8 1.3-4-3-9.2-4.1-14.1-3-15.7 4.1-14.8 32 4.4 32 3.4-.2 6.5-1.3 9.1-3.3zM624 106.2a4.8 4.8 0 01-4.8-4.8V39.6c0-2.6 2.1-4.8 4.8-4.8h5.1c2.6 0 4.8 2.1 4.8 4.8v61.9c0 2.6-2.1 4.8-4.8 4.8l-5.1-.1zm-26.9-7a25.2 25.2 0 01-18.8 8c-16 0-23.6-13.2-23.6-28V54.1c0-2.6 2.1-4.8 4.8-4.8h5.1c2.6 0 4.8 2.1 4.8 4.8v25a13 13 0 0013.2 14.7c8-.2 14.3-6.9 14.1-14.8v-9.6-15.3c0-2.6 2.1-4.8 4.8-4.8h5.1c2.6 0 4.8 2.1 4.8 4.8v47.5c0 2.6-2.1 4.7-4.7 4.7h-4.3a4.8 4.8 0 01-4.7-4.7v-2.4h-.6zm-61.4-49.7h10c2.6 0 4.7 2.2 4.7 4.8v3.3c0 2.6-2.1 4.8-4.7 4.8h-10v39.1c0 2.6-2.1 4.8-4.8 4.8h-5.1a4.8 4.8 0 01-4.8-4.8v-54a20.4 20.4 0 0118.5-22.2h8c2.6 0 4.7 2.2 4.7 4.8v3c0 2.6-2.1 4.8-4.7 4.8h-3.8c-5.7 0-8.1 4.4-8.1 9.7l.1 1.9zm-35.6 0H511c2.6 0 4.7 2.1 4.7 4.7v3.2c0 2.6-2.1 4.7-4.7 4.7h-10.9V86c0 4.6 2.2 7.3 6.9 7.3h2.2c2.6 0 4.7 2.1 4.7 4.7v3.2c0 2.6-2.1 4.7-4.7 4.7h-6.6c-11.8-.7-17.1-8.4-17.1-19.9V39.7c0-2.6 2.1-4.7 4.7-4.7h5c2.6 0 4.7 2.1 4.7 4.7l.2 9.8zm-157.8 0h10.9c2.6 0 4.7 2.1 4.7 4.7v3.2c0 2.6-2.1 4.7-4.7 4.7h-10.6V86c0 4.6 2.2 7.3 6.9 7.3h2.2c2.6 0 4.7 2.1 4.7 4.7v3.2c0 2.6-2.1 4.7-4.7 4.7h-3.3c-12.9 0-20.3-5.5-20.3-20V39.7c0-2.6 2.1-4.7 4.7-4.7h5c2.6 0 4.7 2.1 4.7 4.7v9.8h-.2zm-64 6.9c4.7-5 11.3-7.9 18.2-8 15.9 0 24.3 13.1 24.3 28v25.1c0 2.6-2.1 4.8-4.8 4.8h-5.1a4.8 4.8 0 01-4.8-4.8v-25a13 13 0 00-11.3-14.6l-1.9-.1c-8 .2-14.3 6.9-14 14.8v24.8c0 2.6-2.1 4.7-4.7 4.7h-5a4.7 4.7 0 01-4.7-4.7V54c0-2.6 2.1-4.7 4.7-4.7h4.3c2.6.1 4.6 2.1 4.7 4.7l.1 2.4zm157.9 0c4.7-5 11.3-7.9 18.2-8 15.9 0 24.3 13.1 24.3 28v25.1c0 2.6-2.1 4.8-4.8 4.8h-5.1a4.8 4.8 0 01-4.8-4.8v-25a13 13 0 00-11.3-14.6l-1.9-.1c-8 .2-14.3 6.9-14 14.8v24.8c0 2.6-2.1 4.7-4.7 4.7H427a4.7 4.7 0 01-4.7-4.7V54c0-2.6 2.1-4.7 4.7-4.7h4.3c2.6.1 4.6 2.1 4.7 4.7v2.5l.2-.1zm-206.4-8.2a28.5 28.5 0 00-29.5 27.6v2.1a29.6 29.6 0 1059.2 0 28.7 28.7 0 00-27.8-29.7h-1.9zm143.6 35a14.8 14.8 0 0016.3 11.2c3.7-.1 7.4-.9 10.7-2.4l1.6-.8c1.8-1 3.4-1.6 5 0l2.6 2.6 2.3 2.5c2.4 3 .7 3.8-2 5.6-6.1 4-13.2 6.1-20.5 6.1-18.8 0-31.3-11.4-31.3-30.4a28.5 28.5 0 0127.2-29.8h3.2c18.2 0 28.7 10.7 29 29 0 5 .3 6.6-4.9 6.6l-39.2-.2zM230.3 61.5c8.6.2 15.4 7.3 15.2 15.9v.4a15 15 0 01-13.6 16.3 15 15 0 01-16.3-16.3 15 15 0 0113.8-16.2h1.1l-.2-.1zm143.8 9.3h29.2a12.5 12.5 0 00-14.2-10.2 15.2 15.2 0 00-15 10.2z" fill="#37322e"/><path d="M100.6 52.6s9.8 11.3 19.7.9c9.9-10.4-5.8-21.6-5.8-21.6S82.1 3 43.2 32.2c0 0-21.3 16.3-20.3 46.6s26.5 44.6 26.5 44.6 30.9 20.9 63.6-2.5c0 0 15.9-8.4 6.8-22.3 0 0-9-10.1-16.8-1.6a32 32 0 01-46.1.7c-18.1-17-8.3-52.3 20.4-53.4 0 0 12.3-1.6 23.3 8.3z" stroke="#37322e" stroke-width="5" stroke-miterlimit="10"/><path d="M47.7 56.6a12.2 12.2 0 100-24.4 12.2 12.2 0 000 24.4zM48.3 118.8a12.2 12.2 0 100-24.4 12.2 12.2 0 000 24.4z" stroke="#37322e" stroke-width="5" stroke-miterlimit="10"/></svg>
